X: 8841
T: Cuileog Ag Máirseáil Ar An mBalla
R: jig
M: 6/8
K: Dmajor
A,|:D2E F2D|F2GA2d|e2d cBA|f2e d2A|e2d cBA|
BcA GFE|D2d dec|d3z2A,:|D3d3|F3A2d|c2eB2e|A2GF2E|
D3d3|F3A2[1d|efe dcB|ABA GFE:|2 F|D2d dec|d3||

